images/icons/robo-face-icon.svg

<svg width="21" height="16" viewBox="0 0 21 16" fill="none" xmlns="http://www.w3.org/2000/svg">
<path d="M15.498 3.2207H5.00249C4.1528 3.2207 3.46399 3.90951 3.46399 4.7592V8.6807C3.46399 9.53039 4.1528 10.2192 5.00249 10.2192H15.498C16.3477 10.2192 17.0365 9.53039 17.0365 8.6807V4.7592C17.0365 3.90951 16.3477 3.2207 15.498 3.2207Z" stroke="#050505" stroke-linecap="round" stroke-linejoin="round"/>
<path d="M15.809 0.5C15.9621 0.499934 16.1137 0.530036 16.2551 0.588585C16.3965 0.647133 16.525 0.732981 16.6333 0.84122C16.7415 0.94946 16.8274 1.07797 16.8859 1.2194C16.9445 1.36084 16.9746 1.51243 16.9745 1.6655V1.8805C16.9745 2.3738 17.1705 2.8469 17.5193 3.19572C17.8681 3.54454 18.3412 3.7405 18.8345 3.7405C18.9876 3.74043 19.1392 3.77054 19.2806 3.82908C19.422 3.88763 19.5505 3.97348 19.6588 4.08172C19.767 4.18996 19.8529 4.31847 19.9114 4.4599C19.97 4.60134 20.0001 4.75293 20 4.906V8.485C20.0001 8.63803 19.97 8.78958 19.9115 8.93098C19.8529 9.07238 19.7671 9.20087 19.659 9.3091C19.5508 9.41734 19.4223 9.50319 19.2809 9.56177C19.1396 9.62035 18.988 9.6505 18.835 9.6505C18.3417 9.6505 17.8686 9.84646 17.5198 10.1953C17.171 10.5441 16.975 11.0172 16.975 11.5105V11.7255C16.9751 11.8786 16.9449 12.0302 16.8864 12.1717C16.8278 12.3132 16.7419 12.4417 16.6336 12.55C16.5253 12.6582 16.3967 12.744 16.2552 12.8026C16.1138 12.8611 15.9621 12.8911 15.809 12.891H6.449L4.7525 14.947C4.339 15.448 3.5255 15.1555 3.5255 14.506V11.511C3.5255 11.2667 3.47739 11.0249 3.38392 10.7992C3.29044 10.5735 3.15344 10.3685 2.98072 10.1958C2.808 10.0231 2.60296 9.88606 2.37729 9.79258C2.15163 9.69911 1.90976 9.651 1.6655 9.651C1.51238 9.65107 1.36076 9.62095 1.21929 9.56237C1.07782 9.50379 0.94929 9.4179 0.841044 9.3096C0.732798 9.20131 0.64696 9.07274 0.588441 8.93125C0.529922 8.78976 0.499869 8.63812 0.5 8.485V4.906C0.499935 4.75297 0.53002 4.60142 0.588537 4.46002C0.647054 4.31862 0.732857 4.19013 0.841044 4.0819C0.949231 3.97366 1.07768 3.88781 1.21906 3.82923C1.36044 3.77065 1.51197 3.7405 1.665 3.7405C2.1583 3.7405 2.6314 3.54454 2.98022 3.19572C3.32904 2.8469 3.525 2.3738 3.525 1.8805V1.6655C3.525 1.51243 3.55517 1.36085 3.61378 1.21944C3.67239 1.07803 3.75829 0.94956 3.86657 0.841367C3.97486 0.733174 4.10341 0.647381 4.24487 0.588893C4.38633 0.530405 4.53793 0.500368 4.691 0.5005L15.809 0.5Z" stroke="#050505" stroke-linecap="round" stroke-linejoin="round"/>
<path d="M6.09851 5.88498C6.09851 5.55651 6.229 5.2415 6.46126 5.00923C6.69352 4.77697 7.00854 4.64648 7.33701 4.64648C7.66548 4.64648 7.9805 4.77697 8.21276 5.00923C8.44503 5.2415 8.57551 5.55651 8.57551 5.88498V7.29798C8.57551 7.62645 8.44503 7.94147 8.21276 8.17374C7.9805 8.406 7.66548 8.53648 7.33701 8.53648C7.00854 8.53648 6.69352 8.406 6.46126 8.17374C6.229 7.94147 6.09851 7.62645 6.09851 7.29798V5.88498ZM11.9245 5.88498C11.9245 5.55651 12.055 5.2415 12.2873 5.00923C12.5195 4.77697 12.8345 4.64648 13.163 4.64648C13.4915 4.64648 13.8065 4.77697 14.0388 5.00923C14.271 5.2415 14.4015 5.55651 14.4015 5.88498V7.29798C14.4015 7.62645 14.271 7.94147 14.0388 8.17374C13.8065 8.406 13.4915 8.53648 13.163 8.53648C12.8345 8.53648 12.5195 8.406 12.2873 8.17374C12.055 7.94147 11.9245 7.62645 11.9245 7.29798V5.88498Z" stroke="#050505" stroke-linecap="round" stroke-linejoin="round"/>
</svg>

<svg xmlns="http://www.w3.org/2000/svg" width="21" height="16" fill="none"><path stroke="#050505" stroke-linecap="round" stroke-linejoin="round" d="M15.498 3.22H5.002c-.85 0-1.538.69-1.538 1.54v3.92c0 .85.689 1.54 1.538 1.54h10.496c.85 0 1.539-.69 1.539-1.54V4.76c0-.85-.69-1.54-1.539-1.54"/><path stroke="#050505" stroke-linecap="round" stroke-linejoin="round" d="M15.809.5a1.165 1.165 0 0 1 1.165 1.166v.215a1.86 1.86 0 0 0 1.86 1.86A1.165 1.165 0 0 1 20 4.906v3.579a1.165 1.165 0 0 1-1.165 1.165 1.86 1.86 0 0 0-1.86 1.86v.216a1.166 1.166 0 0 1-1.166 1.165h-9.36l-1.696 2.056c-.414.501-1.227.209-1.227-.441v-2.995a1.86 1.86 0 0 0-1.86-1.86A1.165 1.165 0 0 1 .5 8.485V4.906a1.165 1.165 0 0 1 1.165-1.165 1.86 1.86 0 0 0 1.86-1.86v-.216A1.165 1.165 0 0 1 4.691.502z"/><path stroke="#050505" stroke-linecap="round" stroke-linejoin="round" d="M6.099 5.885a1.239 1.239 0 0 1 2.477 0v1.413a1.239 1.239 0 1 1-2.477 0zm5.826 0a1.238 1.238 0 0 1 2.476 0v1.413a1.239 1.239 0 0 1-2.476 0z"/></svg>
